symbols/web/check_box/materialsymbolsrounded/check_box_gradN25_24px.svg

<svg xmlns="http://www.w3.org/2000/svg" height="24" width="24"><path d="M5.1 20.775q-.775 0-1.325-.55-.55-.55-.55-1.325V5.1q0-.775.55-1.325.55-.55 1.325-.55h13.8q.775 0 1.325.55.55.55.55 1.325v13.8q0 .775-.55 1.325-.55.55-1.325.55Zm0-1.875h13.8V5.1H5.1v13.8Zm5.525-3.175q.175 0 .35-.063.175-.062.3-.212l5.6-5.575q.25-.25.25-.637 0-.388-.275-.663t-.662-.275q-.388 0-.663.275l-4.9 4.875-2.15-2.15q-.275-.275-.65-.275t-.65.3q-.275.275-.275.663 0 .387.25.662l2.825 2.8q.15.15.313.212.162.063.337.063ZM5.1 18.9V5.1v13.8Z"/></svg>

<svg xmlns="http://www.w3.org/2000/svg" height="24" width="24"><path d="M5.1 20.775Q4.325 20.775 3.775 20.225Q3.225 19.675 3.225 18.9V5.1Q3.225 4.325 3.775 3.775Q4.325 3.225 5.1 3.225H18.9Q19.675 3.225 20.225 3.775Q20.775 4.325 20.775 5.1V18.9Q20.775 19.675 20.225 20.225Q19.675 20.775 18.9 20.775ZM5.1 18.9H18.9Q18.9 18.9 18.9 18.9Q18.9 18.9 18.9 18.9V5.1Q18.9 5.1 18.9 5.1Q18.9 5.1 18.9 5.1H5.1Q5.1 5.1 5.1 5.1Q5.1 5.1 5.1 5.1V18.9Q5.1 18.9 5.1 18.9Q5.1 18.9 5.1 18.9ZM10.625 15.725Q10.8 15.725 10.975 15.662Q11.15 15.6 11.275 15.45L16.875 9.875Q17.125 9.625 17.125 9.238Q17.125 8.85 16.85 8.575Q16.575 8.3 16.188 8.3Q15.8 8.3 15.525 8.575L10.625 13.45L8.475 11.3Q8.2 11.025 7.825 11.025Q7.45 11.025 7.175 11.325Q6.9 11.6 6.9 11.988Q6.9 12.375 7.15 12.65L9.975 15.45Q10.125 15.6 10.288 15.662Q10.45 15.725 10.625 15.725ZM5.1 18.9Q5.1 18.9 5.1 18.9Q5.1 18.9 5.1 18.9V5.1Q5.1 5.1 5.1 5.1Q5.1 5.1 5.1 5.1Q5.1 5.1 5.1 5.1Q5.1 5.1 5.1 5.1V18.9Q5.1 18.9 5.1 18.9Q5.1 18.9 5.1 18.9Z"/></svg>
